X:1
T:I Will Praise Him
T:Margaret Jenkins Harris, 1898
T:I Will Praise Him
T:Public Domain
T:Public Domain
T:Public Domain
C:Margaret Jenkins Harris, 1898
Z:Public Domain
%%score ( 1 2 ) ( 3 4 )
L:1/8
M:4/4
K:Eb
V:1 treble 
V:2 treble 
V:3 bass 
V:4 bass 
V:1
 [EG]3 [EG] [EA][EG][EF]E | [DA]2 [DA]6 | [FA]3 [DF] [GB][FA][EG][DF] | [EG]8 | %4
w: 1.~When I saw the cleans- ing|fount- ain|O- pen wide for all my|sin,|
w: 2.~Though the way seems straight and|nar- row,|All I claimed was swept a-|way;|
w: 3.~Then God’s fire up- on the|al- tar|Of my heart was set a-|flame;|
w: 4.~Bless- èd be the name of|Je- sus!|I’m so glad He took me|in;|
w: 5.~Glo- ry, glo- ry to the|Fa- ther!|Glo- ry, glo- ry to the|Son!|
 [GB]3 [GB] [GB][EG][FA][GB] | [Ac]2 [Ac]6 | [GB][EG][CE][EA] [EG]2 [DF]2 | E6 z2 || %8
w: I o- beyed the Spir- it’s|woo- ing,|When He said, “Wilt thou be|clean?”|
w: My am- bi- tions, plans and|wish- es,|At my feet in ash- es|lay.|
w: I shall ne- ver cease to|praise Him|Glo- ry, glo- ry to His|name!|
w: He’s for- giv- en my trans-|gress- ions,|He has cleansed my heart from|sin.|
w: Glo- ry, glo- ry to the|Spir- it!|Glo- ry to the Three in|One!|
"^Refrain" [EG]3 [EG] [EA] [EG]2 z2 | [GB]3 [GB] [Ac] [GB]2 z | [Ge]3 [GB] [Ac][GB][FA][EG] | %11
w: |||
w: |||
w: will praise Him! I|will praise Him! Praise|the Lamb for sin- ners slain;|
w: |||
w: |||
 (DDFE D2 F2) | [EG]3 [EG] [EA][EG][EF]E | [GB]2 [GB]4 [GB][Ac] | [GB][EG][CE][EA] [EG]2 [DF]2 | %15
w: ||||
w: ||||
w: Give * * * * *|glo- ry, all ye peo- ple,|For His blood can|wash a- way each stain. *|
w: ||||
w: ||||
 [B,E]6 z2 |] %16
w: |
w: |
w: |
w: |
w: |
V:2
 x8 | x8 | x8 | x8 | x8 | x8 | x8 | E6 x2 || x9 | x8 | x8 | F6 x2 | x8 | x8 | x8 | x8 |] %16
w: ||||||||||||||||
w: ||||||||||||||||
w: |||||||I||||Him|||||
V:3
 [E,B,]3 [E,B,] [E,C][E,B,][E,A,][E,G,] | [F,B,]2 [F,B,]6 | %2
 [B,,B,]3 [B,,B,] [B,,B,][B,,B,][B,,B,][B,,B,] | [E,B,]8 | [E,E]3 [E,E] [E,E][E,B,][E,C][E,E] | %5
 [A,E]2 [A,E]6 | [E,E][E,B,][A,,A,][A,,C] [B,,B,]2 [B,,A,]2 | [E,G,]6 z2 || %8
 [E,B,]3 [E,B,] [E,C] [E,B,]2 z2 | [E,E]3 [E,E] [E,E] [E,E]2 z | %10
 [E,B,]3 [E,E] [E,E][E,E][E,B,][E,B,] | (B,B,DC B,2 A,2) | [E,B,]3 [E,B,] [E,C][E,B,][E,A,][E,G,] | %13
 [E,B,]2 [E,E]4 [E,E][E,E] | [E,E][E,B,][A,,A,][A,,C] [B,,B,]2 [B,,A,]2 | [E,G,]6 z2 |] %16
V:4
 x8 | x8 | x8 | x8 | x8 | x8 | x8 | x8 || x9 | x8 | x8 | B,,6 x2 | x8 | x8 | x8 | x8 |] %16

